shared/images/iconfont/kb-iconfont-identity-twitter-16.svg

<?xml version="1.0" encoding="UTF-8"?>
<svg width="16px" height="16px" viewBox="0 0 16 16" version="1.1" xmlns="http://www.w3.org/2000/svg" xmlns:xlink="http://www.w3.org/1999/xlink">
    <!-- Generator: sketchtool 49.2 (51160) - http://www.bohemiancoding.com/sketch -->
    <title>E803424F-6EDA-4482-BD5E-6E1B0F054DB0</title>
    <desc>Created with sketchtool.</desc>
    <defs></defs>
    <g id="Colors,-icons" stroke="none" stroke-width="1" fill="none" fill-rule="evenodd">
        <g id="Icons-2" transform="translate(-277.000000, -218.000000)">
            <g id="kb-iconfont-identity-twitter-16" transform="translate(277.000000, 218.000000)">
                <rect id="icon-area" fill="#D8D8D8" opacity="0" x="0" y="0" width="16" height="16"></rect>
                <path d="M15,3.40027297 C14.4848897,3.63777792 13.9313728,3.79835064 13.3503054,3.87049124 C13.9433556,3.50095036 14.3988076,2.91567981 14.6132192,2.21839169 C14.0582684,2.56062029 13.443608,2.80909274 12.789312,2.94304532 C12.2653938,2.36267288 11.5189217,2 10.6928198,2 C9.10647061,2 7.82046161,3.33707674 7.82046161,4.9861416 C7.82046161,5.22023917 7.84586122,5.44810763 7.89481693,5.66665903 C5.50771425,5.54212999 3.3913018,4.35327423 1.97465891,2.5466181 C1.72742236,2.98766069 1.58577856,3.50063092 1.58577856,4.0478879 C1.58577856,5.08389078 2.09284904,5.99792014 2.86354292,6.53346426 C2.39272834,6.51797133 1.9498226,6.38359283 1.56258093,6.15993036 C1.56237609,6.17238858 1.56232488,6.18490005 1.56232488,6.19746476 C1.56232488,7.64432299 2.55239767,8.85128045 3.86636673,9.12562768 C3.62532646,9.1938285 3.37158638,9.2302981 3.10965288,9.2302981 C2.92453272,9.2302981 2.74463587,9.21161075 2.5692454,9.17673836 C2.9347745,10.3631451 3.99551556,11.2264897 5.2523867,11.2506608 C4.26932953,12.0515545 3.0308936,12.528907 1.68517502,12.528907 C1.45335235,12.528907 1.22470463,12.5147983 1,12.4872198 C2.27115842,13.3344859 3.78089908,13.828822 5.40294085,13.828822 C10.6861114,13.828822 13.5751125,9.27858704 13.5751125,5.33241647 C13.5751125,5.20293607 13.572296,5.0741478 13.5668166,4.9461049 C14.1279637,4.52508065 14.6149091,3.99911979 15,3.40027297" id="Icon-twitter" fill="#000000"></path>
            </g>
        </g>
    </g>
</svg>

<svg xmlns="http://www.w3.org/2000/svg" width="16" height="16" viewBox="0 0 16 16">
    <path fill="#000" fill-rule="evenodd" d="M15 3.4a5.571 5.571 0 0 1-1.65.47 2.977 2.977 0 0 0 1.263-1.652 5.62 5.62 0 0 1-1.824.725A2.819 2.819 0 0 0 10.693 2C9.106 2 7.82 3.337 7.82 4.986c0 .234.026.462.075.68-2.387-.124-4.504-1.313-5.92-3.12a3.063 3.063 0 0 0-.39 1.502c0 1.036.508 1.95 1.279 2.485a2.778 2.778 0 0 1-1.301-.373v.037c0 1.447.99 2.654 2.303 2.929a2.775 2.775 0 0 1-1.297.05c.366 1.187 1.427 2.05 2.683 2.075A5.625 5.625 0 0 1 1 12.487a7.907 7.907 0 0 0 4.403 1.342c5.283 0 8.172-4.55 8.172-8.497 0-.13-.003-.258-.008-.386A5.972 5.972 0 0 0 15 3.4"/>
</svg>
